icons/media/disc-question-24.svg

<svg width="24" height="24" viewBox="0 0 24 24" fill="none" xmlns="http://www.w3.org/2000/svg">
<g clip-path="url(#clip0_410_2672)">
<path d="M20.1939 15.7524C19.8374 15.6924 19.4708 15.7581 19.1589 15.9378C18.8471 16.1175 18.6102 16.3996 18.4901 16.7341C18.3496 17.1257 17.9119 17.3315 17.5125 17.1938C17.113 17.056 16.9031 16.6268 17.0437 16.2352C17.2839 15.5658 17.758 15.0013 18.382 14.6417C19.006 14.2821 19.7397 14.1507 20.4532 14.2706C21.1666 14.3906 21.8137 14.7543 22.2798 15.2972C22.7458 15.8399 23.0009 16.5268 23 17.2362C22.9998 18.3862 22.1302 19.1455 21.5094 19.5512C21.3107 19.6811 21.1139 19.7905 20.9362 19.8801C20.8472 19.9249 20.8027 19.9473 20.7733 19.9772C20.7463 20.0046 20.7279 20.0341 20.7154 20.0702C20.7017 20.1096 20.7017 20.1558 20.7017 20.2483C20.7017 20.6635 20.3584 21 19.9349 21C19.5115 21 19.1683 20.6635 19.1683 20.2483L19.1683 19.4891C19.1683 19.1662 19.3787 18.8793 19.6909 18.7766C19.6909 18.7766 19.8893 18.7021 19.9827 18.6614C20.1718 18.579 20.4181 18.4578 20.6589 18.3004C21.1871 17.9551 21.4666 17.5879 21.4666 17.2358C21.4672 16.8812 21.3397 16.5367 21.1067 16.2653C20.8738 15.994 20.5504 15.8123 20.1939 15.7524Z" fill="black"/>
<path d="M20 22C20.5522 22 21 22.4477 21 23C21 23.5523 20.5522 24 20 24C19.4477 24 19 23.5523 19 23C19 22.4477 19.4477 22 20 22Z" fill="black"/>
<path fill-rule="evenodd" clip-rule="evenodd" d="M12 2.5C6.75329 2.5 2.5 6.75329 2.5 12C2.5 17.2467 6.75329 21.5 12 21.5C12.4142 21.5 12.75 21.8358 12.75 22.25C12.75 22.6642 12.4142 23 12 23C5.92487 23 1 18.0751 1 12C1 5.92487 5.92487 1 12 1C18.0751 1 23 5.92487 23 12C23 12.4142 22.6642 12.75 22.25 12.75C21.8358 12.75 21.5 12.4142 21.5 12C21.5 6.75329 17.2467 2.5 12 2.5Z" fill="black"/>
<path fill-rule="evenodd" clip-rule="evenodd" d="M12 13.5C12.8284 13.5 13.5 12.8284 13.5 12C13.5 11.1716 12.8284 10.5 12 10.5C11.1716 10.5 10.5 11.1716 10.5 12C10.5 12.8284 11.1716 13.5 12 13.5ZM12 15C13.6569 15 15 13.6569 15 12C15 10.3431 13.6569 9 12 9C10.3431 9 9 10.3431 9 12C9 13.6569 10.3431 15 12 15Z" fill="black"/>
</g>
<defs>
<clipPath id="clip0_410_2672">
<rect width="24" height="24" fill="white"/>
</clipPath>
</defs>
</svg>

<svg xmlns="http://www.w3.org/2000/svg" width="24" height="24"><path d="M20.194 15.752a1.557 1.557 0 00-1.035.186 1.51 1.51 0 00-.669.796.77.77 0 01-.977.46.748.748 0 01-.47-.959 3.02 3.02 0 011.339-1.593 3.117 3.117 0 012.071-.371 3.08 3.08 0 011.827 1.026 2.97 2.97 0 01.72 1.94c0 1.15-.87 1.909-1.49 2.314-.2.13-.396.24-.574.33a.636.636 0 00-.163.096.24.24 0 00-.058.093c-.013.04-.013.086-.013.178a.76.76 0 01-.767.752.76.76 0 01-.767-.752v-.759c0-.323.21-.61.523-.712 0 0 .198-.075.292-.116.189-.082.435-.203.676-.36.528-.346.808-.713.808-1.065 0-.355-.127-.7-.36-.97a1.538 1.538 0 00-.913-.514zM20 22a1 1 0 110 2 1 1 0 010-2z"/><path fill-rule="evenodd" d="M12 2.5a9.5 9.5 0 100 19 .75.75 0 010 1.5C5.925 23 1 18.075 1 12S5.925 1 12 1s11 4.925 11 11a.75.75 0 01-1.5 0A9.5 9.5 0 0012 2.5z"/><path fill-rule="evenodd" d="M12 13.5a1.5 1.5 0 100-3 1.5 1.5 0 000 3zm0 1.5a3 3 0 100-6 3 3 0 000 6z"/></svg>
